actions/16/edit-table-cell-merge.svg

<svg xmlns="http://www.w3.org/2000/svg" viewBox="0 0 16 16">
  <defs id="defs3051">
<style type="text/css" id="current-color-scheme">.ColorScheme-Text {color:#fcfcfc;}</style>
  </defs>
 <path style="fill:currentColor;fill-opacity:1;stroke:none" 
     d="m 4,2 c 0,0 -2,0 -2,2 0,2 0,6 0,8 0,2 2,2 2,2 h 5 1 2 c 0,0 2,0 2,-2 0,-2 0,-6 0,-8 C 14,2 12,2 12,2 Z M 4,3 H 6 V 5 H 7 V 3 h 2 v 2 h 1 V 3 h 1 1 c 0,0 1,0 1,1 0,1 0,1 0,1 V 6 H 11.65625 11 V 7 H 11.65625 13 v 2 h -1 -1 v 1 h 1 1 c 0,0 0,1 0,2 0,1 -1,1 -1,1 H 11 10 V 11 H 9 v 2 H 7 V 11 H 6 v 2 H 4 C 4,13 3,13 3,12 3,11 3,10 3,10 H 5 V 9 H 3 V 7 H 5 V 6 H 3 V 5 C 3,5 3,5 3,4 3,3 4,3 4,3 Z m 3,3 -2,2 2,2 z m 2,0 v 4 l 2,-2 z"
     class="ColorScheme-Text"
     />
</svg>

<svg xmlns="http://www.w3.org/2000/svg" viewBox="0 0 16 16">
  <defs id="defs3051">
    <style type="text/css" id="current-color-scheme">
      .ColorScheme-Text {
        color:#eff0f1;
      }
      </style>
  </defs>
 <path style="fill:currentColor;fill-opacity:1;stroke:none" 
     d="M 2 2 L 2 14 L 3 14 L 9 14 L 10 14 L 13 14 L 14 14 L 14 2 L 2 2 z M 3 3 L 6 3 L 6 5 L 7 5 L 7 3 L 9 3 L 9 5 L 10 5 L 10 3 L 11 3 L 12 3 L 13 3 L 13 5 L 13 6 L 11.65625 6 L 11 6 L 11 7 L 11.65625 7 L 13 7 L 13 9 L 12 9 L 11 9 L 11 10 L 12 10 L 13 10 L 13 13 L 12 13 L 11 13 L 10 13 L 10 11 L 9 11 L 9 13 L 7 13 L 7 11 L 6 11 L 6 13 L 3 13 L 3 10 L 5 10 L 5 9 L 3 9 L 3 7 L 5 7 L 5 6 L 3 6 L 3 5 L 3 3 z M 7 6 L 5 8 L 7 10 L 7 6 z M 9 6 L 9 10 L 11 8 L 9 6 z "
     class="ColorScheme-Text"
     />
</svg>
